X:1
T:That Beautiful City
T:That Beautiful City
T:George Wicker Elderkin
T:Lanta Wilson Smith, 1904
T:Public Domain Courtesy of the Cyber Hymnal™
T:Public Domain Courtesy of the Cyber Hymnal™
T:Public Domain Courtesy of the Cyber Hymnal™
C:George Wicker Elderkin
Z:Public Domain
Z:Courtesy of the Cyber Hymnal™
%%score ( 1 2 ) 3 ( 4 5 )
L:1/8
Q:1/4=85
M:6/8
K:C
V:1 treble 
V:2 treble 
V:3 treble 
V:4 bass 
V:5 bass 
V:1
!f! [EG] | [Ec][Ec][Ec] [Ec][Ec][Ec] x3 | [AB]2 [FA] [FA]2 [FA] x3 | [EG][EG][EG] GA[B,FG] | %4
w: ~|~ ~ ~ ~ ~ ~|~ ~ ~ ~|~ ~ ~ ~ ~ ~|
w: ~|~ ~ ~ ~ ~ ~|~ ~ ~ ~|~ ~ ~ ~ ~ ~|
w: ~|~ ~ ~ ~ ~ ~|~ ~ ~ ~|~ ~ ~ ~ ~ ~|
 (E2 F) !fermata![CE]2 x |: G x5 | [Ec][Ec][Ec] [Ec][Ec][Ec] | [GB]2 [FA] [FA]2 [FA] | %8
w: ~ * ~|1.~I|know that a- far in God’s|bound- less realm, Per-|
w: ~ * ~|2.~That|beau- ti- ful ci- ty with|jas- per walls, Ne’er|
w: ~ * ~|3.~The|long- ings of life shall be|sat- is- fied, The|
 [EG][EG][EG] (GA)[CG] | (E2 F) [CE]2 [EG]/[EG]/ |!<(! [FA]2!<)! [FA] [FA][GB][Ac] | %11
w: haps ’mid the star- * ry|spac- * es, Lies the|prom- ised home of the|
w: clos- es its pearl- * y|por- * tals, And the|heal- ing power of its|
w: fet- ters of earth * be|bro- * ken, And the|words im- pri- soned with-|
 [Ec]2!>(! [CE]!>)! [EG]2 [FA] | [EG][CF][CE] ([B,D][CE])[DF] | [CE]3 [EG]2 [Ec] | %14
w: saints re- deemed, Re-|plete with ce- les- * tial|grac- es; In|
w: ho- ly light Sweeps|o- ver the blest * im-|mor- tals; There|
w: in the soul, With|rap- ture shall then * be|spo- ken; The|
 [Ec][DB][CA] [E^G][EG][DG] | [CA]2 [CA] [CE][CE][CE] | [D^F][EG][FA] (Ad)[Ac] | [GB]3 [FA]2 [FG] | %18
w: dreams I have walked on the|streets of gold, As I|sought for my own * fair|dwell- ing; And|
w: sor- row and tears shall be|wiped a- way, In the|dawn of an end- * less|morn- ing, Our|
w: mu- sic that sor- row hath|hushed a- while, And the|si- lence of life’s * sad|sto- ry, Shall|
 [Ec][Ec][Ec] [Ec]2 [Ec] | [GB]2 [FA] [FA]2 [FA] |!f! [EG][EG]"^riten."[Ec] [Ec]2 [Fd] | %21
w: voic- es I knew and|loved of old, I’ve|heard in the mu- sic|
w: tri- umphs of faith like|stars shall shine— Bright|crowns for the soul’s a-|
w: leap in- to songs of|per- fect joy, At-|tuned to e- ter- nal|
 [Fd]3 [Ec]2 x ||"^Refrain" [EG] x4 | [EG][EG][EG] [EG][EG][EG] | [FA]2 [Ac] [Ac]2 [FA] | %25
w: swell- ing.||||
w: dorn- ing.|That|beau- ti- ful ci- ty is|home to me, Each|
w: glo- ry.||||
 [EG][DF][CE] ([B,D][CE])[DF] | [CE]3 [EG]2 [EG] | [FA][FA][FA] [FA][FA]!<(![FB]!<)! | %28
w: |||
w: day it is grow- * ing|dear- er; And|voic- es that call from be-|
w: |||
 c2 [Bd] e2 [Ae] | [Af][Ge][Fd]!>(! [^FA][FB]!>)![Fc] | [=Fd]3 [Ec]2"^Play 3 times" :| %31
w: |||
w: yond the sea Are|draw- ing me near- er and|near- er.|
w: |||
V:2
 x | x9 | x9 | x3 F2 x | C3 x3 |: G x5 | x6 | x6 | x3 F2 x | C3 x3 | x6 | x6 | x6 | x6 | x6 | x6 | %16
 x3 ^F2 x | x6 | x6 | x6 | x6 | x6 || x5 | x6 | x6 | x6 | x6 | x6 | (EA) (c B) x2 | x6 | x5 :| %31
V:3
 z | x9 | z3 z2 x4 | z x5 | z EG cGE |: z FA (dA)F | z [CE]G z ([B,F]G) | z ([CE]G) (cG)E | %8
 z FA dAF | z EG (cG)[FA] | [EG][DF][CE] ([B,D][CE])[DF] | z (EA) (GE)C | z Ec E^GB | z Ec ecA | %14
 z DA (d^F)A | z (FG) (dB)G | z EG (cG)E | z FA (dA)F | z EG ([B,DF]G)B, | z (FG) [Ec]2 x | z x5 | %21
 x6 || z3 z2"^Play 3 times" | x6 | x6 | x6 | x6 | x6 | x6 | x6 | x5 :| %31
V:4
 z | z E,G, x6 | z F,A, x6 | G,,D,G, G,,D,G, | z G,A, !fermata![C,G,]2 x |:!p! z x5 | C,6 | %7
 [F,,F,]6 | [G,,G,]6 | [C,G,]3- [C,G,]2 z | [F,,F,]6 | C,6 | [G,,G,]6 | C,6 | E,6 | [A,,A,]6 | %16
 D,3- [D,C]3 | [G,B,]6 | C,6 | [F,,F,]6 | [G,,G,]6 | [C,G,]3- [C,G,]2 x || [C,C] x4 | %23
 [C,C][C,C][C,C] [C,C][C,C][C,C] | [F,C]2 [F,F] [F,F]2 [F,C] | [G,C]G,G, [G,,G,]2 [G,,G,] | %26
 [C,G,]3 [C,C]2 [C,C] | [F,C][F,C][F,C] [F,F][F,E][G,D] | [A,C]2 [G,F] [CE]2 [^CE] | %29
 DDD [D,C][D,B,][D,A,] | [G,B,]3 [C,G,]2"^Play 3 times" :| %31
V:5
 x | C,6 CG,E, | F,,6 DA,F, | G,,6 | C,3 x3 |: x6 | x6 | x6 | x6 | x6 | x6 | x6 | x6 | x6 | x6 | %15
 x6 | x6 | x6 | x6 | x6 | x6 | x6 || x5 | x6 | x6 | x G,G, x3 | x6 | x6 | x6 | DDD x3 | x5 :| %31

